X:2973
T:Chief o'Neill's favourite
S:sessions
R:Hornpipe
O:Ireland
M:4/4
K:D
de|\
fe fg af ge|(3fgf ec dc AG|\
FD (3DDD DF AB|=cA d^c A2 de|
fe fg af ge|(3fgf ec dc AG|FD EF GB AG|F2D2D2::
DE|\
=F2 FG A2AB|=cB cd cB AG|\
Ad (3ddd fd ed|=cA d^c A2 de|
fe fg af ge|(3fgf ec dc AG|FD EF GB AG|F2D2D2:|


